production/images/blockquote.svg

<svg width="34" height="31" viewBox="0 0 34 31" fill="none" xmlns="http://www.w3.org/2000/svg">
<path d="M14.191 4.7C12.5244 6.36666 11.0577 8.33333 9.79102 10.6C8.59102 12.8 7.75768 15.0667 7.29102 17.4C7.55768 17.3333 8.02435 17.3 8.69102 17.3C10.1577 17.3 11.391 17.9 12.391 19.1C13.4577 20.2333 13.991 21.7 13.991 23.5C13.991 25.5667 13.3577 27.2667 12.091 28.6C10.8244 29.8667 9.15768 30.5 7.09102 30.5C5.02435 30.5 3.35768 29.7333 2.09102 28.2C0.82435 26.6667 0.191016 24.5 0.191016 21.7C0.191016 18.1 1.12435 14.3667 2.99102 10.5C4.85768 6.56666 7.39102 3.26666 10.591 0.599998L14.191 4.7ZM28.291 17.3C29.8244 17.3 31.091 17.9 32.091 19.1C33.1577 20.2333 33.691 21.7 33.691 23.5C33.691 25.5667 33.0577 27.2667 31.791 28.6C30.5244 29.8667 28.8577 30.5 26.791 30.5C24.6577 30.5 22.9577 29.7333 21.691 28.2C20.4244 26.6667 19.791 24.5 19.791 21.7C19.791 18.1667 20.7244 14.4333 22.591 10.5C24.4577 6.56666 26.991 3.26666 30.191 0.599998L33.791 4.7C32.1244 6.36666 30.691 8.33333 29.491 10.6C28.291 12.8 27.4577 15.0667 26.991 17.4C27.2577 17.3333 27.691 17.3 28.291 17.3Z" fill="#FFC700"/>
</svg>

<svg width="34" height="31" viewBox="0 0 34 31" fill="none" xmlns="http://www.w3.org/2000/svg"><path d="M14.191 4.7c-1.667 1.667-3.133 3.633-4.4 5.9-1.2 2.2-2.033 4.467-2.5 6.8.267-.067.733-.1 1.4-.1 1.467 0 2.7.6 3.7 1.8 1.067 1.133 1.6 2.6 1.6 4.4 0 2.067-.633 3.767-1.9 5.1-1.267 1.267-2.933 1.9-5 1.9s-3.733-.767-5-2.3-1.9-3.7-1.9-6.5c0-3.6.933-7.333 2.8-11.2 1.867-3.933 4.4-7.233 7.6-9.9l3.6 4.1zm14.1 12.6c1.533 0 2.8.6 3.8 1.8 1.067 1.133 1.6 2.6 1.6 4.4 0 2.067-.633 3.767-1.9 5.1-1.267 1.267-2.933 1.9-5 1.9-2.133 0-3.833-.767-5.1-2.3-1.267-1.533-1.9-3.7-1.9-6.5 0-3.533.933-7.267 2.8-11.2 1.867-3.933 4.4-7.233 7.6-9.9l3.6 4.1c-1.667 1.667-3.1 3.633-4.3 5.9-1.2 2.2-2.033 4.467-2.5 6.8.267-.067.7-.1 1.3-.1z" fill="#FFC700"/></svg>
